public/assets/Sponsors/present/devfolio.svg

<svg width="308" height="64" viewBox="0 0 308 64" fill="none" xmlns="http://www.w3.org/2000/svg">
<g clip-path="url(#clip0)">
<path d="M79.5811 12.4943H96.1077C100.114 12.3861 104.09 13.2119 107.721 14.9063C110.863 16.4205 113.466 18.8598 115.18 21.8966C116.976 25.2267 117.869 28.9686 117.771 32.7506C117.872 36.5516 116.987 40.3141 115.203 43.6716C113.502 46.7113 110.905 49.1524 107.766 50.6619C104.119 52.3577 100.128 53.1834 96.1077 53.0739H79.5811V12.4943ZM95.3707 44.5873C96.981 44.7144 98.6004 44.5192 100.134 44.013C101.668 43.5068 103.086 42.6998 104.304 41.6393C105.369 40.4237 106.179 39.0065 106.685 37.4719C107.191 35.9373 107.384 34.3165 107.252 32.7059C107.391 31.0949 107.201 29.4725 106.694 27.9369C106.187 26.4014 105.374 24.9847 104.304 23.7726C103.08 22.7232 101.661 21.9263 100.128 21.428C98.5944 20.9297 96.9777 20.7398 95.3707 20.8693H90.1001V44.5873H95.3707ZM149.551 40.9023H132.042C132.184 42.4341 132.903 43.8548 134.052 44.8776C135.365 45.7669 136.937 46.1915 138.519 46.0836C141.384 46.0464 144.171 45.1433 146.514 43.493L149.105 50.193C147.545 51.2994 145.808 52.1303 143.968 52.6496C142.027 53.2361 140.011 53.5371 137.983 53.5429C135.06 53.6166 132.162 53.0047 129.518 51.7563C127.214 50.633 125.3 48.8435 124.024 46.6196C122.698 44.224 122.035 41.518 122.104 38.7806C122.056 36.1231 122.678 33.4964 123.913 31.1426C125.07 28.9472 126.828 27.1267 128.982 25.8943C131.221 24.6259 133.757 23.9783 136.33 24.0183C138.121 23.9508 139.905 24.2689 141.561 24.9509C143.218 25.6329 144.709 26.6629 145.933 27.9713C148.443 30.9257 149.722 34.7313 149.507 38.6019L149.551 40.9023ZM131.93 35.9666H140.864C140.64 32.5876 139.151 30.8969 136.397 30.8969C133.643 30.8969 132.154 32.5876 131.93 35.9666ZM172.957 24.7999H182.984L170.344 53.0963H161.879L149.44 24.7999H160.16L166.391 40.7459L172.957 24.7999ZM200.94 24.7999H207.64V32.3486H200.94V53.1409H190.6V32.3039H185.396V24.7999H190.6C190.577 23.1204 190.911 21.4552 191.581 19.915C192.251 18.3747 193.242 16.9947 194.486 15.8666C197.631 13.6003 201.419 12.4026 205.295 12.4496L208.802 12.2263L209.382 19.6633L206.68 19.7749C205.132 19.7204 203.596 20.0584 202.213 20.7576C201.759 21.1177 201.404 21.5875 201.181 22.1228C200.958 22.6581 200.876 23.2412 200.94 23.8173V24.7999ZM216.685 51.7563C214.394 50.6122 212.49 48.8177 211.214 46.5973C209.887 44.2017 209.224 41.4956 209.293 38.7583C209.221 36.0276 209.884 33.3278 211.214 30.9416C212.491 28.7459 214.386 26.9749 216.663 25.8496C219.251 24.6722 222.061 24.0629 224.904 24.0629C227.747 24.0629 230.557 24.6722 233.145 25.8496C235.422 26.9749 237.317 28.7459 238.594 30.9416C239.924 33.3278 240.587 36.0276 240.515 38.7583C240.584 41.4956 239.921 44.2017 238.594 46.5973C237.292 48.8291 235.356 50.6244 233.033 51.7563C230.458 52.9501 227.653 53.5686 224.815 53.5686C221.976 53.5686 219.171 52.9501 216.596 51.7563H216.685ZM230.376 38.7583C230.376 33.9946 228.551 31.6116 224.904 31.6116C221.257 31.6116 219.432 33.9946 219.432 38.7583C219.432 43.522 221.257 45.9049 224.904 45.9049C228.551 45.9049 230.376 43.522 230.376 38.7583ZM245.183 53.0963V12.4943H255.367V53.0963H245.183ZM261.129 10.5959H271.849V19.8643H261.129V10.5959ZM261.352 53.0293V24.7999H271.603V53.0963L261.352 53.0293ZM283.641 51.7563C281.349 50.6122 279.446 48.8177 278.169 46.5973C276.843 44.2017 276.18 41.4956 276.248 38.7583C276.176 36.0276 276.839 33.3278 278.169 30.9416C279.446 28.7459 281.341 26.9749 283.618 25.8496C286.206 24.6722 289.016 24.0629 291.859 24.0629C294.702 24.0629 297.513 24.6722 300.1 25.8496C302.378 26.9749 304.273 28.7459 305.55 30.9416C306.879 33.3278 307.543 36.0276 307.47 38.7583C307.539 41.4956 306.876 44.2017 305.55 46.5973C304.259 48.8225 302.34 50.6172 300.033 51.7563C297.458 52.9501 294.653 53.5686 291.815 53.5686C288.976 53.5686 286.171 52.9501 283.596 51.7563H283.641ZM297.331 38.7583C297.331 33.9946 295.506 31.6116 291.859 31.6116C288.212 31.6116 286.388 33.9946 286.388 38.7583C286.388 43.522 288.212 45.9049 291.859 45.9049C295.506 45.9049 297.324 43.522 297.309 38.7583H297.331Z" fill="white"/>
<g clip-path="url(#clip1)">
<path d="M61.3135 35.2396C61.375 42.3469 58.773 49.2195 54.0199 54.504C49.2669 59.7884 42.7073 63.1015 35.6333 63.7907C35.6333 63.7907 17.1973 64.2617 11.0968 63.7907C9.97972 63.6566 8.91805 63.229 8.01983 62.5514C7.12162 61.8738 6.41892 60.9704 5.98322 59.933C6.8414 60.3111 7.76069 60.5314 8.69703 60.5834C10.6931 60.7629 14.1022 60.8526 18.857 60.8526C25.8322 60.8526 33.4353 60.6507 33.5026 60.6507H33.6372C41.2372 60.0053 48.3045 56.4837 53.3964 50.8048C57.7637 45.9917 60.53 39.942 61.3135 33.4902V35.2396Z" fill="white"/>
<path d="M59.0705 28.9821C59.1254 36.0926 56.5145 42.9656 51.7527 48.2464C46.9909 53.5271 40.4236 56.8324 33.3454 57.5108C33.3454 57.5108 14.9094 57.9818 8.80896 57.5108C7.16139 57.2552 5.6632 56.4086 4.59421 55.1291C3.52523 53.8497 2.95856 52.2248 3.00006 50.558V7.11466C2.97949 5.43929 3.57252 3.81427 4.66733 2.54593C5.76215 1.2776 7.28312 0.453581 8.94353 0.229212C15.0664 -0.286636 33.4799 0.229212 33.4799 0.229212C40.5729 0.942292 47.1394 4.29324 51.8789 9.61834C56.6183 14.9434 59.185 21.8543 59.0705 28.9821Z" fill="white"/>
</g>
</g>
<defs>
<clipPath id="clip0">
<rect width="308" height="64" fill="white"/>
</clipPath>
<clipPath id="clip1">
<rect width="64" height="64" fill="white" transform="translate(-0.0908203)"/>
</clipPath>
</defs>
</svg>

<svg width="308" height="64" fill="none" xmlns="http://www.w3.org/2000/svg"><g clip-path="url(#a)" fill="#fff"><path d="M79.581 12.494h16.527a25.815 25.815 0 0 1 11.613 2.412 17.078 17.078 0 0 1 7.459 6.99 21.682 21.682 0 0 1 2.591 10.855 22.028 22.028 0 0 1-2.568 10.92 16.93 16.93 0 0 1-7.437 6.99 25.973 25.973 0 0 1-11.658 2.413H79.58v-40.58Zm15.79 32.093a12.148 12.148 0 0 0 8.933-2.948 12.051 12.051 0 0 0 2.948-8.933 11.938 11.938 0 0 0-2.948-8.933 12.22 12.22 0 0 0-8.933-2.904H90.1v23.718h5.27Zm54.18-3.685h-17.509a6.074 6.074 0 0 0 2.01 3.976 7.103 7.103 0 0 0 4.467 1.206 14.204 14.204 0 0 0 7.995-2.591l2.591 6.7a16.738 16.738 0 0 1-5.137 2.457 20.898 20.898 0 0 1-5.985.893 18.718 18.718 0 0 1-8.465-1.787 12.803 12.803 0 0 1-5.494-5.136 15.386 15.386 0 0 1-1.92-7.84 15.824 15.824 0 0 1 1.809-7.637 13.063 13.063 0 0 1 5.069-5.249 14.45 14.45 0 0 1 7.348-1.876 12.5 12.5 0 0 1 9.603 3.953 15.123 15.123 0 0 1 3.574 10.63l.044 2.301Zm-17.621-4.935h8.934c-.224-3.38-1.713-5.07-4.467-5.07-2.754 0-4.243 1.69-4.467 5.07ZM172.957 24.8h10.027l-12.64 28.296h-8.465L149.44 24.8h10.72l6.231 15.946 6.566-15.946Zm27.983 0h6.7v7.549h-6.7V53.14H190.6V32.304h-5.204V24.8h5.204a11.839 11.839 0 0 1 3.886-8.933 18.112 18.112 0 0 1 10.809-3.417l3.507-.224.58 7.437-2.702.112a9.183 9.183 0 0 0-4.467.983 3.422 3.422 0 0 0-1.273 3.06v.982Zm15.745 26.956a13.018 13.018 0 0 1-5.471-5.159 15.377 15.377 0 0 1-1.921-7.839 15.23 15.23 0 0 1 1.921-7.816 12.931 12.931 0 0 1 5.449-5.092 19.9 19.9 0 0 1 16.482 0 12.931 12.931 0 0 1 5.449 5.092 15.23 15.23 0 0 1 1.921 7.816 15.377 15.377 0 0 1-1.921 7.84 13.062 13.062 0 0 1-5.561 5.158 19.54 19.54 0 0 1-16.437 0h.089Zm13.691-12.998c0-4.763-1.825-7.146-5.472-7.146-3.647 0-5.472 2.383-5.472 7.146 0 4.764 1.825 7.147 5.472 7.147 3.647 0 5.472-2.383 5.472-7.147Zm14.807 14.338V12.494h10.184v40.602h-10.184Zm15.946-42.5h10.72v9.268h-10.72v-9.268Zm.223 42.433V24.8h10.251v28.297l-10.251-.067Zm22.289-1.273a13.02 13.02 0 0 1-5.472-5.159 15.398 15.398 0 0 1-1.921-7.839 15.23 15.23 0 0 1 1.921-7.816 12.931 12.931 0 0 1 5.449-5.092 19.9 19.9 0 0 1 16.482 0 12.928 12.928 0 0 1 5.45 5.092 15.23 15.23 0 0 1 1.92 7.816 15.387 15.387 0 0 1-1.92 7.84 13.066 13.066 0 0 1-5.517 5.158 19.54 19.54 0 0 1-16.437 0h.045Zm13.69-12.998c0-4.763-1.825-7.146-5.472-7.146-3.647 0-5.471 2.383-5.471 7.146 0 4.764 1.824 7.147 5.471 7.147 3.647 0 5.465-2.383 5.45-7.147h.022Z"/><g clip-path="url(#b)"><path d="M61.313 35.24a28.44 28.44 0 0 1-25.68 28.55s-18.436.472-24.536 0a6.37 6.37 0 0 1-5.114-3.857 7.804 7.804 0 0 0 2.714.65c1.996.18 5.405.27 10.16.27 6.975 0 14.578-.202 14.646-.202h.134a29.942 29.942 0 0 0 19.76-9.846 31.4 31.4 0 0 0 7.916-17.315v1.75Z"/><path d="M59.07 28.982a28.439 28.439 0 0 1-25.725 28.529s-18.436.47-24.536 0A6.863 6.863 0 0 1 3 50.558V7.115A6.863 6.863 0 0 1 8.944.229c6.122-.516 24.536 0 24.536 0a28.44 28.44 0 0 1 25.59 28.753Z"/></g></g><defs><clipPath id="a"><path fill="#fff" d="M0 0h308v64H0z"/></clipPath><clipPath id="b"><path fill="#fff" transform="translate(-.09)" d="M0 0h64v64H0z"/></clipPath></defs></svg>
